;FLAVOR:Marlin
;TIME:1749
;Filament used: 1.19172m
;Layer height: 0.2
;MINX:69.702
;MINY:120.307
;MINZ:0.2
;MAXX:165.298
;MAXY:146.098
;MAXZ:12
;Generated with Cura_SteamEngine 4.13.0
M82 ;absolute extrusion mode
M201 X500.00 Y500.00 Z100.00 E5000.00 ;Setup machine max acceleration
M203 X500.00 Y500.00 Z10.00 E50.00 ;Setup machine max feedrate
M204 P500.00 R1000.00 T500.00 ;Setup Print/Retract/Travel acceleration
M205 X8.00 Y8.00 Z0.40 E5.00 ;Setup Jerk
;M220 S100 ;Reset Feedrate
;M221 S100 ;Reset Flowrate

M140 S65 ;set bed temperature
M190 S65 ;wait for bed temperature

G28 ;home all axis
G29 ;auto bed leveling

M104 S215 ; set hotend temperature
M109 S215 ;wait for hotend temperature
G92 E0 ;Reset Extruder
G1 Z2.0 F3000 ;Move Z Axis up
G1 X0.5 Y20 Z0.28 F5000.0 ;Move to start position
G1 X0.5 Y200.0 Z0.28 F1500.0 E15 ;Draw the first line
G1 X0.8 Y200.0 Z0.28 F5000.0 ;Move to side a little
G1 X0.8 Y20 Z0.28 F1500.0 E30 ;Draw the second line
G92 E0 ;Reset Extruder
G1 Z2.0 F3000 ;Move Z Axis up
G92 E0
G92 E0
G1 F300 E-1
;LAYER_COUNT:60
;LAYER:0
M107
G0 F6000 X71.967 Y121.085 Z0.2
;TYPE:SKIRT
G1 F300 E0
G1 F1200 X72.5 Y120.797 E0.01934
G1 X73.031 Y120.592 E0.03752
G1 X73.227 Y120.53 E0.04408
G1 X73.816 Y120.386 E0.06344
G1 X74.544 Y120.317 E0.08679
G1 X75.268 Y120.307 E0.10991
G1 X75.646 Y120.312 E0.12198
G1 X76.183 Y120.351 E0.13917
G1 X76.305 Y120.367 E0.1431
G1 X76.772 Y120.453 E0.15826
G1 X77.582 Y120.646 E0.18485
G1 X78.753 Y120.94 E0.2234
G1 X81.412 Y121.527 E0.31035
G1 X84.021 Y122.028 E0.39517
G1 X86.728 Y122.467 E0.48274
G1 X89.363 Y122.82 E0.56762
G1 X92.056 Y123.102 E0.65408
G1 X94.763 Y123.309 E0.74077
G1 X96.171 Y123.384 E0.78579
G1 X96.401 Y123.4 E0.79315
G1 X96.658 Y123.425 E0.80139
G1 X96.979 Y123.471 E0.81175
G1 X97.401 Y123.545 E0.82543
G1 X98.679 Y123.802 E0.86705
G1 X101.342 Y124.299 E0.95355
G1 X103.982 Y124.715 E1.03888
G1 X106.702 Y125.064 E1.12644
G1 X109.362 Y125.33 E1.2118
G1 X112.038 Y125.521 E1.29746
G1 X114.774 Y125.638 E1.3849
G1 X117.415 Y125.678 E1.46924
G1 X120.156 Y125.641 E1.55676
G1 X122.832 Y125.528 E1.64228
G1 X125.532 Y125.339 E1.7287
G1 X128.232 Y125.072 E1.81534
G1 X130.879 Y124.735 E1.90054
G1 X133.563 Y124.315 E1.98728
G1 X136.227 Y123.821 E2.07379
G1 X136.652 Y123.731 E2.08766
G1 X137.524 Y123.558 E2.11605
G1 X137.669 Y123.532 E2.12075
G1 X138.182 Y123.449 E2.13734
G1 X138.331 Y123.429 E2.14214
G1 X138.708 Y123.394 E2.15423
G1 X139.151 Y123.371 E2.1684
G1 X141.848 Y123.196 E2.25469
G1 X144.54 Y122.946 E2.34102
G1 X147.221 Y122.619 E2.42725
G1 X149.855 Y122.222 E2.51231
G1 X152.562 Y121.736 E2.60012
G1 X155.139 Y121.199 E2.68417
G1 X158.121 Y120.479 E2.78212
G1 X158.458 Y120.411 E2.7931
G1 X158.672 Y120.376 E2.80002
G1 X159.344 Y120.317 E2.82156
G1 X160.068 Y120.307 E2.84468
G1 X160.446 Y120.312 E2.85675
G1 X161.05 Y120.36 E2.8761
G1 X161.643 Y120.487 E2.89546
G1 X162.382 Y120.768 E2.92071
G1 X162.629 Y120.887 E2.92946
G1 X163.156 Y121.185 E2.94879
G1 X163.64 Y121.551 E2.96817
G1 X164.072 Y121.977 E2.98754
G1 X164.443 Y122.456 E3.00689
G1 X164.787 Y123.056 E3.02897
G1 X164.835 Y123.157 E3.03254
G1 X165.058 Y123.721 E3.0519
G1 X165.206 Y124.309 E3.07126
G1 X165.279 Y125.047 E3.09494
G1 X165.297 Y126.049 E3.12694
G1 X165.298 Y140.54 E3.58964
G1 X165.287 Y141.295 E3.61375
G1 X165.238 Y141.899 E3.63309
G1 X165.11 Y142.492 E3.65246
G1 X164.905 Y143.063 E3.67184
G1 X164.736 Y143.41 E3.68416
G1 X164.632 Y143.603 E3.69116
G1 X164.31 Y144.117 E3.71053
G1 X163.923 Y144.584 E3.72989
G1 X163.478 Y144.995 E3.74923
G1 X162.983 Y145.345 E3.76859
G1 X162.446 Y145.627 E3.78796
G1 X161.966 Y145.808 E3.80434
G1 X161.763 Y145.872 E3.81113
G1 X161.174 Y146.016 E3.83049
G1 X160.455 Y146.084 E3.85355
G1 X159.588 Y146.098 E3.88124
G1 X75.241 Y146.097 E6.57442
G1 X74.542 Y146.087 E6.59674
G1 X73.938 Y146.038 E6.61609
G1 X73.345 Y145.91 E6.63546
G1 X72.578 Y145.615 E6.6617
G1 X72.338 Y145.497 E6.67024
G1 X71.813 Y145.194 E6.68959
G1 X71.332 Y144.825 E6.70895
G1 X70.904 Y144.396 E6.7283
G1 X70.536 Y143.914 E6.74766
G1 X70.235 Y143.388 E6.76701
G1 X70.005 Y142.827 E6.78637
G1 X69.915 Y142.522 E6.79652
G1 X69.857 Y142.298 E6.80391
G1 X69.744 Y141.702 E6.82328
G1 X69.71 Y141.203 E6.83925
G1 X69.703 Y140.59 E6.85882
G1 X69.702 Y125.796 E7.33119
G1 X69.712 Y125.114 E7.35297
G1 X69.761 Y124.509 E7.37235
G1 X69.889 Y123.917 E7.39169
G1 X70.094 Y123.346 E7.41106
G1 X70.234 Y123.052 E7.42146
G1 X70.34 Y122.849 E7.42877
G1 X70.656 Y122.331 E7.44815
G1 X71.037 Y121.859 E7.46751
G1 X71.476 Y121.442 E7.48685
G1 X71.967 Y121.085 E7.50623
G0 F6000 X72.268 Y121.37
G1 F1200 X72.785 Y121.109 E7.52472
G1 X73.151 Y120.974 E7.53718
G1 X73.347 Y120.912 E7.54374
G1 X73.91 Y120.775 E7.56224
G1 X74.55 Y120.716 E7.58277
G1 X75.143 Y120.707 E7.6017
G1 X75.641 Y120.712 E7.6176
G1 X76.131 Y120.748 E7.63329
G1 X76.253 Y120.764 E7.63722
G1 X76.68 Y120.842 E7.65108
G1 X77.485 Y121.034 E7.6775
G1 X78.675 Y121.332 E7.71667
G1 X81.322 Y121.917 E7.80323
G1 X83.953 Y122.423 E7.88878
G1 X86.647 Y122.86 E7.97592
G1 X89.339 Y123.22 E8.06264
G1 X92.02 Y123.501 E8.14871
G1 X94.752 Y123.709 E8.2362
G1 X96.143 Y123.783 E8.28068
G1 X96.608 Y123.822 E8.29557
G1 X96.91 Y123.865 E8.30531
G1 X97.322 Y123.938 E8.31867
G1 X98.546 Y124.184 E8.35854
G1 X101.278 Y124.694 E8.44728
G1 X103.94 Y125.113 E8.53332
G1 X106.647 Y125.461 E8.62047
G1 X109.33 Y125.728 E8.70656
G1 X112.025 Y125.921 E8.79283
G1 X114.716 Y126.037 E8.87883
G1 X117.45 Y126.077 E8.96614
G1 X120.177 Y126.041 E9.05322
G1 X122.842 Y125.928 E9.13838
G1 X125.563 Y125.737 E9.22548
G1 X128.29 Y125.468 E9.31297
G1 X130.92 Y125.133 E9.39763
G1 X133.626 Y124.71 E9.48508
G1 X136.305 Y124.213 E9.57208
G1 X136.73 Y124.123 E9.58595
G1 X137.602 Y123.95 E9.61433
G1 X137.734 Y123.926 E9.61862
G1 X138.235 Y123.845 E9.63482
G1 X138.384 Y123.825 E9.63962
G1 X138.728 Y123.793 E9.65065
G1 X139.177 Y123.77 E9.66501
G1 X141.875 Y123.595 E9.75134
G1 X144.589 Y123.343 E9.83837
G1 X147.263 Y123.017 E9.92438
G1 X149.949 Y122.612 E10.01111
G1 X152.609 Y122.134 E10.09741
G1 X155.248 Y121.584 E10.18348
G1 X158.215 Y120.868 E10.28093
G1 X158.522 Y120.806 E10.29093
G1 X158.736 Y120.771 E10.29786
G1 X159.35 Y120.716 E10.31754
G1 X159.943 Y120.707 E10.33648
G1 X160.441 Y120.712 E10.35238
G1 X161.018 Y120.76 E10.37087
G1 X161.583 Y120.887 E10.38936
G1 X162.208 Y121.128 E10.41075
G1 X162.455 Y121.247 E10.4195
G1 X162.958 Y121.534 E10.43799
G1 X163.417 Y121.887 E10.45648
G1 X163.823 Y122.301 E10.47499
G1 X164.169 Y122.766 E10.4935
G1 X164.425 Y123.228 E10.51037
G1 X164.473 Y123.329 E10.51394
G1 X164.685 Y123.868 E10.53243
G1 X164.821 Y124.431 E10.55092
G1 X164.879 Y125.054 E10.5709
G1 X164.897 Y126.049 E10.60268
G1 X164.898 Y140.534 E11.06518
G1 X164.887 Y141.289 E11.08929
G1 X164.838 Y141.866 E11.10778
G1 X164.711 Y142.432 E11.1263
G1 X164.384 Y143.22 E11.15354
G1 X164.28 Y143.413 E11.16054
G1 X163.971 Y143.903 E11.17904
G1 X163.597 Y144.346 E11.19755
G1 X163.166 Y144.733 E11.21604
G1 X162.686 Y145.057 E11.23454
G1 X162.166 Y145.311 E11.25301
G1 X161.846 Y145.427 E11.26388
G1 X161.643 Y145.491 E11.27068
G1 X161.08 Y145.626 E11.28916
G1 X160.449 Y145.684 E11.3094
G1 X159.588 Y145.698 E11.33689
G1 X75.247 Y145.697 E14.02988
G1 X74.548 Y145.687 E14.0522
G1 X73.971 Y145.638 E14.07069
G1 X73.405 Y145.511 E14.08921
G1 X72.755 Y145.256 E14.1115
G1 X72.515 Y145.138 E14.12004
G1 X72.014 Y144.847 E14.13854
G1 X71.558 Y144.49 E14.15703
G1 X71.155 Y144.074 E14.17553
G1 X70.813 Y143.606 E14.19404
G1 X70.539 Y143.096 E14.21252
G1 X70.302 Y142.422 E14.23533
G1 X70.244 Y142.198 E14.24272
G1 X70.138 Y141.628 E14.26123
G1 X70.11 Y141.198 E14.27499
G1 X70.103 Y140.59 E14.29441
G1 X70.102 Y125.801 E14.76662
G1 X70.112 Y125.119 E14.78839
G1 X70.161 Y124.542 E14.80688
G1 X70.288 Y123.977 E14.82537
G1 X70.589 Y123.237 E14.85088
G1 X70.695 Y123.034 E14.85819
G1 X70.998 Y122.54 E14.8767
G1 X71.366 Y122.093 E14.89518
G1 X71.792 Y121.7 E14.91369
G1 X72.268 Y121.37 E14.93218
G1 F300 E13.93218
G0 F6000 X94.044 Y128.663
G0 X94.844 Y128.993
;TYPE:SUPPORT-INTERFACE
G1 F300 E14.93218
G1 F1200 X95.038 Y128.662 E14.94444
G1 X95.045 Y128.654 E14.94477
G1 X95.321 Y128.403 E14.95669
G1 X95.323 Y128.401 E14.95678
G1 X95.666 Y128.236 E14.96893
G1 X96.053 Y128.178 E14.98142
G1 X96.429 Y128.237 E14.99358
G1 X96.785 Y128.407 E15.00617
G1 X97.057 Y128.659 E15.01801
G1 X97.065 Y128.669 E15.01842
G1 X97.254 Y128.994 E15.03043
G1 X97.347 Y129.385 E15.04326
G1 X97.356 Y129.501 E15.04697
G1 X97.56 Y131.824 E15.12143
G1 X97.76 Y134.109 E15.19467
G1 X97.932 Y136.072 E15.25759
G1 X94.168 Y136.072 E15.37777
G1 X94.34 Y134.109 E15.44069
G1 X94.537 Y131.851 E15.51306
G1 X94.755 Y129.373 E15.59249
G1 X94.844 Y128.993 E15.60495
G1 F300 E14.60495
G0 F6000 X94.097 Y128.557
G0 X94.404 Y128.068
G0 X94.902 Y127.646
G0 X95.478 Y127.389
G0 X96 Y127.329
G0 X136.792 Y129.292
G0 X137.655 Y129.363
G1 F300 E15.60495
G1 F1200 X137.743 Y128.998 E15.61694
G1 X137.748 Y128.984 E15.61741
G1 X137.932 Y128.671 E15.62901
G1 X137.939 Y128.662 E15.62937
G1 X138.228 Y128.399 E15.64185
G1 X138.237 Y128.392 E15.64221
G1 X138.562 Y128.237 E15.65371
G1 X138.953 Y128.178 E15.66633
G1 X139.329 Y128.237 E15.67849
G1 X139.685 Y128.407 E15.69108
G1 X139.957 Y128.659 E15.70292
G1 X139.965 Y128.669 E15.70333
G1 X140.154 Y128.994 E15.71534
G1 X140.247 Y129.385 E15.72817
G1 X140.256 Y129.501 E15.73188
G1 X140.46 Y131.824 E15.80634
G1 X140.66 Y134.109 E15.87958
G1 X140.832 Y136.072 E15.9425
G1 X137.068 Y136.072 E16.06268
G1 X137.24 Y134.109 E16.1256
G1 X137.437 Y131.85 E16.198
G1 X137.638 Y129.568 E16.27115
G1 X137.655 Y129.363 E16.27772
G0 F6000 X137.767 Y130.367
G1 F1200 X139.564 Y128.57 E16.35886
G0 F6000 X138.615 Y128.433
G1 F1200 X140.09 Y129.908 E16.42547
G0 F6000 X140.213 Y131.315
G1 F1200 X137.441 Y134.087 E16.55064
G1 X137.444 Y134.05
G1 X139.266 Y135.871 E16.63289
G0 F6000 X139.051 Y135.871
G1 F1200 X140.487 Y134.435 E16.69773
G0 F6000 X140.417 Y133.629
G1 F1200 X137.717 Y130.929 E16.81965
G1 F300 E15.81965
G0 F6000 X136.658 Y130.837
G0 X98.694 Y134.878
G0 X97.635 Y134.971
G1 F300 E16.81965
G1 F1200 X94.719 Y132.054 E16.95135
G0 F6000 X94.659 Y132.745
G1 F1200 X97.215 Y130.189 E17.06676
G0 F6000 X97.309 Y131.25
G1 F1200 X95.066 Y129.007 E17.16805
G1 X95.155 Y128.856
G1 X95.45 Y128.56 E17.18139
G1 F300 E16.18139
G0 F6000 X94.732 Y127.771
G0 X95.478 Y127.389
G0 X96.123 Y127.314
G0 X96.758 Y127.437
G0 X97.316 Y127.72
G0 X97.789 Y128.193
G0 X98.083 Y128.74
G0 X98.158 Y129.128
G0 X98.549 Y133.217
G0 X97.489 Y133.31
G1 F300 E17.18139
G1 F1200 X94.928 Y135.871 E17.29703
G0 F6000 X95.141 Y135.871
G1 F1200 X94.446 Y135.175 E17.32844
G1 F300 E16.32844
;MESH:Festplattenhalter.stl
G0 F6000 X93.387 Y135.083
G0 X93.247 Y136.768
G0 X94.446 Y137.893
G0 X94.446 Y138.878
G0 X98.016 Y139.335
G1 F300 E17.32844
G0 F6000 X98.232 Y139.5
;TYPE:WALL-OUTER
G1 F1200 X93.868 Y139.5 E17.46778
G1 X93.933 Y138.758 E17.49156
G1 X98.167 Y138.758 E17.62675
G1 X98.232 Y139.5 E17.65054
G0 F6000 X97.833 Y139.128
;TYPE:SKIN
G1 F1200 X97.55 Y139.128 E17.66048
G1 X94.438 Y139.128 E17.76987
G1 X94.216 Y139.188 E17.77795
G0 F6000 X94.352 Y139.3
G0 X97.92 Y138.958
G0 X97.92 Y138.932
G1 F1200 X98.015 Y139.027 E17.7801
G0 F6000 X97.691 Y139.258
G1 F300 E16.7801
G0 F6000 X98.108 Y139.387
G0 X99.068 Y139.249
G0 X135.932 Y139.249
G0 X136.892 Y139.387
G1 F300 E17.7801
G0 F6000 X136.768 Y139.5
;TYPE:WALL-OUTER
G1 F1200 X136.833 Y138.758 E17.80388
G1 X141.067 Y138.758 E17.93907
G1 X141.132 Y139.5 E17.96285
G1 X136.768 Y139.5 E18.10219
G0 F6000 X137.013 Y139.276
;TYPE:SKIN
G1 F1200 X137.166 Y139.146 E18.10866
G1 X140.542 Y139.128 E18.2174
G1 X140.781 Y139.084 E18.22522
G0 F6000 X140.609 Y139
G1 F300 E17.22522
G0 F6000 X136.892 Y139.387
G0 X136.892 Y140.323
G0 X75.512 Y140.497
;TYPE:WALL-INNER
G1 F300 E18.22522
G1 F1200 X75.303 Y140.497 E18.2319
G1 X75.306 Y140.317 E18.23765
G1 X75.512 Y140.497 E18.24078
G1 F300 E17.24078
G0 F6000 X159.698 Y140.498
G1 F300 E18.24078
G1 F1200 X159.517 Y140.494 E18.24656
G1 X159.698 Y140.287 E18.25045
G1 X159.698 Y140.498 E18.25118
G0 F6000 X160.098 Y140.898
G1 F1200 X158.453 Y140.898 E18.3037
G1 X78.459 Y140.898 E20.85789
G1 X76.519 Y140.898 E20.91983
G1 X74.903 Y140.897 E20.97143
G1 X74.903 Y139.254 E21.02389
G1 X74.902 Y125.502 E21.46299
G1 X75.297 Y125.503 E21.4756
G1 X75.297 Y139.253 E21.90969
G1 X75.405 Y139.731 E21.92533
G1 X75.612 Y140.053 E21.93756
G1 X75.892 Y140.298 E21.94943
G1 X76.224 Y140.45 E21.96109
G1 X76.519 Y140.501 E21.97065
G1 X78.459 Y140.503 E22.03213
G1 X158.453 Y140.503 E24.56071
G1 X158.931 Y140.395 E24.57636
G1 X159.253 Y140.188 E24.58858
G1 X159.498 Y139.908 E24.60046
G1 X159.65 Y139.576 E24.61212
G1 X159.701 Y139.281 E24.62168
G1 X159.703 Y137.45 E24.68014
G1 X159.702 Y125.502 E25.06164
G1 X160.097 Y125.503 E25.07425
G1 X160.097 Y137.45 E25.45094
G1 X160.097 Y139.28 E25.50878
G1 X160.098 Y140.898 E25.56044
G0 F6000 X160.453 Y141.281
;TYPE:WALL-OUTER
G1 F1200 X160.385 Y141.298 E25.56268
G1 X74.612 Y141.297 E28.30139
G1 X74.51 Y141.236 E28.30518
G1 X74.503 Y141.198 E28.30642
G1 X74.502 Y125.207 E28.81701
G1 X74.547 Y125.119 E28.82016
G1 X74.615 Y125.102 E28.8224
G1 X75.588 Y125.103 E28.85347
G1 X75.69 Y125.164 E28.85726
G1 X75.697 Y125.196 E28.85831
G1 X75.697 Y139.208 E29.30571
G1 X75.78 Y139.574 E29.31769
G1 X75.918 Y139.79 E29.32588
G1 X76.111 Y139.959 E29.33407
G1 X76.343 Y140.065 E29.34221
G1 X76.553 Y140.101 E29.34901
G1 X78.459 Y140.103 E29.40987
G1 X158.408 Y140.103 E31.96262
G1 X158.774 Y140.02 E31.97461
G1 X158.99 Y139.882 E31.98279
G1 X159.159 Y139.689 E31.99098
G1 X159.265 Y139.457 E31.99912
G1 X159.301 Y139.247 E32.00593
G1 X159.303 Y137.45 E32.06331
G1 X159.302 Y125.207 E32.45422
G1 X159.347 Y125.119 E32.45738
G1 X159.415 Y125.102 E32.45962
G1 X160.388 Y125.103 E32.49068
G1 X160.49 Y125.164 E32.49448
G1 X160.497 Y125.196 E32.49552
G1 X160.498 Y141.193 E33.0063
G1 X160.453 Y141.281 E33.00946
M104 S215
G0 F6000 X159.897 Y140.815
G1 F300 E32.00946
;MESH:NONMESH
G0 X159.897 Y140.815 Z0.4
G0 F6000 X151.117 Y140.343
G0 X151.117 Y139.238
G0 X136.955 Y137.166
G0 X96.638 Y127.395
G0 X95.987 Y127.314
G0 X95.355 Y127.426
G0 X94.793 Y127.715
G0 X94.523 Y127.981
G0 X94.201 Y128.38
G0 X94.773 Y128.714
;TIME_ELAPSED:69.930825
;LAYER:1
M106 S68
;TYPE:SUPPORT-INTERFACE
G1 F300 E33.00946
G1 F1650 X97.749 Y131.69 E33.12145
G0 F8250 X97.857 Y132.941
G1 F1650 X96.813 Y133.986 E33.16075
G1 X96.65 Y133.986
G1 X94.351 Y131.686 E33.24728
G0 F8250 X94.22 Y133.184
G1 F1650 X97.584 Y129.82 E33.37386
G0 F8250 X96.034 Y127.977
G1 F1650 X94.546 Y129.464 E33.42984
G1 F300 E32.42984
G0 F8250 X93.884 Y129.408
G0 X94.066 Y128.611
G0 X94.402 Y128.071
G0 X94.905 Y127.644
G0 X95.47 Y127.391
G0 X96 Y127.329
G0 X136.414 Y133.624
G0 X137.075 Y133.681
G1 F300 E33.42984
G1 F1650 X137.38 Y133.986 E33.44132
G1 X137.542 Y133.986
G1 X140.582 Y130.946 E33.55571
G0 F8250 X140.531 Y130.348
G1 F1650 X138.316 Y128.134 E33.63904
G0 F8250 X139.848 Y128.286
G1 F1650 X137.327 Y130.807 E33.7339
G0 F8250 X137.348 Y130.56
G1 F1650 X140.855 Y134.067 E33.86587
G1 F300 E32.86587
;MESH:Festplattenhalter.stl
G0 F8250 X140.487 Y134.649
G0 X98.944 Y137.734
G0 X97.885 Y137.827
G0 X96.924 Y138.3
;TYPE:WALL-INNER
G1 F300 E33.86587
G1 F2700 X95.176 Y138.3 E33.91238
G1 X95.231 Y137.672 E33.92916
G1 X96.869 Y137.672 E33.97274
G1 X96.924 Y138.3 E33.98951
G0 F8250 X97.36 Y138.7
G1 F2700 X94.74 Y138.7 E34.05923
G1 X94.865 Y137.272 E34.09737
G1 X97.235 Y137.272 E34.16043
G1 X97.321 Y138.265 E34.18695
G1 X97.36 Y138.7 E34.19857
G0 F8250 X97.796 Y139.1
G1 F2700 X94.304 Y139.1 E34.29149
G1 X94.499 Y136.872 E34.351
G1 X97.601 Y136.872 E34.43353
G1 X97.757 Y138.665 E34.48142
G1 X97.796 Y139.1 E34.49304
G0 F8250 X98.232 Y139.5
;TYPE:WALL-OUTER
G1 F1650 X93.868 Y139.5 E34.60916
G1 X94.133 Y136.472 E34.69004
G1 X97.967 Y136.472 E34.79205
G1 X98.232 Y139.5 E34.87293
G0 F8250 X97.941 Y139.233
G0 X96.79 Y138.017
G0 X96.739 Y138.02
;TYPE:SKIN
G1 F1650 X96.619 Y138.139 E34.87743
G0 F8250 X96.362 Y137.831
G1 F1650 X96.054 Y138.139 E34.88902
G0 F8250 X95.796 Y137.831
G1 F1650 X95.488 Y138.139 E34.90061
G0 F8250 X95.488 Y138.49
G1 F300 E33.90061
